X:7
T:Polska från Västergötland
T:Svenska Folkdansar H1 nr 7
O:Västergötland
B:Traditioner av Svenska Folkdansar Häfte 1, nr 7
R:Polska
Z:Nils L
M:3/4
L:1/8
K:Gm
G>A        B>A G>A  | B>c   d2 B>c  | d_e   fg fe | ^c2   d4      ::
(d>_e)     f2  e2   | (c>e) d2 B2   | (d>e) f2 e2 | (c>e) d2 (Bc) |
(d/e/d/B/) G2  (BA) | ^F2   G4     :|

